X: 1
T: Gan Ainm
M: 6/8
L: 1/8
R: jig
K: Gmaj
|:G3 c2A|BGG dBG|GBd cAB|GBd gdB|
GBd cAA|BGG cAF|GBd cAF|1DGF G3:|2 DGF GBd||
g2g fdf|ege dBG|geg fdf|ece def|
gfg aga|bge dBG|BAB cAF|1DGF GBd:|2 DGF G3||
